db/seeds/files/goal_filters/harmony.svg

<svg viewBox="0 0 91 91" xmlns="http://www.w3.org/2000/svg"><path d="m70.17 39.1a41.35 41.35 0 0 0 -5.63.37 28.68 28.68 0 0 0 -3.62-10.47 1.07 1.07 0 0 0 -1.27-.48 30.89 30.89 0 0 0 -8 4 30.05 30.05 0 0 0 -5.47-6 1.08 1.08 0 0 0 -1.37 0 30.05 30.05 0 0 0 -5.47 6 30.88 30.88 0 0 0 -8-4 1.07 1.07 0 0 0 -1.27.48 28.69 28.69 0 0 0 -3.62 10.5 41.34 41.34 0 0 0 -5.63-.37 1.07 1.07 0 0 0 -1.07 1.07c0 7.48 2.24 13.34 6.84 17.92 4.42 4.39 10.78 6.62 18.9 6.62s14.51-2.26 18.91-6.66c4.6-4.58 6.84-10.44 6.84-17.92a1.07 1.07 0 0 0 -1.07-1.06zm-10.68-8.3a26.21 26.21 0 0 1 2.94 9 22.7 22.7 0 0 0 -6.61 2.41 24.46 24.46 0 0 0 -3-8 28.47 28.47 0 0 1 6.67-3.41zm-28 0a28.48 28.48 0 0 1 6.68 3.49 24.46 24.46 0 0 0 -3 8 22.7 22.7 0 0 0 -6.61-2.41 26.21 26.21 0 0 1 2.95-9.08zm-3.37 25.78c-4-4-6-8.89-6.19-15.33 5.44.12 9.58 1.19 12.93 3.3a22 22 0 0 0 0 2.92 21.19 21.19 0 0 0 7.39 15c-6.01-.57-10.74-2.52-14.13-5.89zm17.38 5.76a19.43 19.43 0 0 1 -8.55-15c-.36-6.74 2.75-13.47 8.55-18.58 5.81 5.11 8.91 11.84 8.55 18.58a19.43 19.43 0 0 1 -8.55 15zm17.38-5.77c-3.39 3.37-8.13 5.32-14.08 5.84a21.19 21.19 0 0 0 7.39-15 22 22 0 0 0 0-2.92c3.35-2.11 7.49-3.18 12.93-3.3-.24 6.5-2.22 11.39-6.24 15.39z" fill="#a4d9d1"/></svg>

<svg id="Слой_1" data-name="Слой 1" xmlns="http://www.w3.org/2000/svg" viewBox="0 0 91 91"><defs><style>.cls-1{fill:#a4d9d1;}</style></defs><title>11</title><g id="item-Page"><g id="Mobile-Icons"><g id="Group-Copy-16"><g id="_11" data-name="11"><path id="Shape" class="cls-1" d="M70.17,39.1a41.35,41.35,0,0,0-5.63.37A28.68,28.68,0,0,0,60.92,29a1.07,1.07,0,0,0-1.27-.48,30.89,30.89,0,0,0-8,4,30.05,30.05,0,0,0-5.47-6,1.08,1.08,0,0,0-1.37,0,30.05,30.05,0,0,0-5.47,6,30.88,30.88,0,0,0-8-4,1.07,1.07,0,0,0-1.27.48,28.69,28.69,0,0,0-3.62,10.5,41.34,41.34,0,0,0-5.63-.37,1.07,1.07,0,0,0-1.07,1.07c0,7.48,2.24,13.34,6.84,17.92,4.42,4.39,10.78,6.62,18.9,6.62S60,62.48,64.4,58.08c4.6-4.58,6.84-10.44,6.84-17.92A1.07,1.07,0,0,0,70.17,39.1ZM59.49,30.8a26.21,26.21,0,0,1,2.94,9,22.7,22.7,0,0,0-6.61,2.41,24.46,24.46,0,0,0-3-8A28.47,28.47,0,0,1,59.49,30.8Zm-28,0a28.48,28.48,0,0,1,6.68,3.49,24.46,24.46,0,0,0-3,8,22.7,22.7,0,0,0-6.61-2.41A26.21,26.21,0,0,1,31.51,30.8ZM28.12,56.58c-4-4-6-8.89-6.19-15.33,5.44.12,9.58,1.19,12.93,3.3a22,22,0,0,0,0,2.92,21.19,21.19,0,0,0,7.39,15C36.24,61.9,31.51,59.95,28.12,56.58ZM45.5,62.34a19.43,19.43,0,0,1-8.55-15c-.36-6.74,2.75-13.47,8.55-18.58,5.81,5.11,8.91,11.84,8.55,18.58A19.43,19.43,0,0,1,45.5,62.34Zm17.38-5.77c-3.39,3.37-8.13,5.32-14.08,5.84a21.19,21.19,0,0,0,7.39-15,22,22,0,0,0,0-2.92c3.35-2.11,7.49-3.18,12.93-3.3C68.88,47.69,66.9,52.58,62.88,56.58Z"/></g></g></g></g></svg>
